icons/svg/amenity_colored/lounger.svg

<svg width="48" height="48" fill="none" version="1.1" viewBox="0 0 48 48" xmlns="http://www.w3.org/2000/svg">
 <namedview bordercolor="#666666" borderopacity="1" gridtolerance="10" guidetolerance="10" objecttolerance="10" pagecolor="#ffffff" showgrid="true">
  <grid spacingx="2" spacingy="2" type="xygrid"/>
 </namedview>
 <path d="m4 20h24l16-12v28h-4v-16l-10 8h-22v8h-4z" fill="#ffffff"/>
</svg>

<svg xmlns:ns0="http://sodipodi.sourceforge.net/DTD/sodipodi-0.dtd" xmlns:ns1="http://www.inkscape.org/namespaces/inkscape" xmlns:rdf="http://www.w3.org/1999/02/22-rdf-syntax-ns#" width="48" height="48" viewBox="0 0 48 48" fill="none" version="1.1" id="svg4" ns0:docname="lounger.svg" ns1:version="0.92.5 (2060ec1f9f, 2020-04-08)" xmlns="http://www.w3.org/2000/svg">
  <metadata id="metadata10">
    <RDF>
      <Work rdf:about="">
        <format>image/svg+xml</format>
        <type rdf:resource="http://purl.org/dc/dcmitype/StillImage" />
        <title />
      </Work>
    </RDF>
  </metadata>
  <defs id="defs8" />
  <namedview pagecolor="#ffffff" bordercolor="#666666" borderopacity="1" objecttolerance="10" gridtolerance="10" guidetolerance="10" ns1:pageopacity="0" ns1:pageshadow="2" ns1:window-width="1920" ns1:window-height="1014" id="namedview6" showgrid="true" ns1:zoom="6.9532167" ns1:cx="17.954825" ns1:cy="36.295195" ns1:window-x="1920" ns1:window-y="0" ns1:window-maximized="1" ns1:current-layer="svg4">
    <grid type="xygrid" id="grid817" spacingx="2" spacingy="2" />
  </namedview>
  <path d="M 4,20 H 28 L 44,8 V 36 H 40 V 20 L 30,28 H 8 v 8 H 4 Z" id="path2" style="fill:#ffffff;fill-opacity:1" ns1:connector-curvature="0" ns0:nodetypes="ccccccccccc" />
</svg>
